icons/modern/anxious-face-with-sweat.svg

<svg width="32" height="32" viewBox="0 0 32 32" fill="none" xmlns="http://www.w3.org/2000/svg">
<path d="M15.9989 29.9978C25.3333 29.9978 29.9978 23.7303 29.9978 15.9989C29.9978 8.26751 25.3333 2 15.9989 2C6.66443 2 2 8.26751 2 15.9989C2 23.7303 6.66443 29.9978 15.9989 29.9978Z" fill="url(#paint0_radial_31_1636)"/>
<path d="M15.9989 29.9978C25.3333 29.9978 29.9978 23.7303 29.9978 15.9989C29.9978 8.26751 25.3333 2 15.9989 2C6.66443 2 2 8.26751 2 15.9989C2 23.7303 6.66443 29.9978 15.9989 29.9978Z" fill="url(#paint1_radial_31_1636)"/>
<path d="M15.9989 29.9978C25.3333 29.9978 29.9978 23.7303 29.9978 15.9989C29.9978 8.26751 25.3333 2 15.9989 2C6.66443 2 2 8.26751 2 15.9989C2 23.7303 6.66443 29.9978 15.9989 29.9978Z" fill="url(#paint2_radial_31_1636)" fill-opacity="0.6"/>
<path fill-rule="evenodd" clip-rule="evenodd" d="M6.92722 11.4485C5.20028 12.2362 4 13.9779 4 15.9999C4 18.7614 6.23858 20.9999 9 20.9999C11.7614 20.9999 14 18.7614 14 15.9999C14 14.1529 12.9984 12.5397 11.5088 11.6739C10.9375 11.8689 10.2679 11.9999 9.5 11.9999C8.46327 11.9999 7.60568 11.7611 6.92722 11.4485Z" fill="url(#paint3_radial_31_1636)"/>
<circle cx="19.5" cy="16.5" r="4.5" fill="url(#paint4_radial_31_1636)"/>
<path fill-rule="evenodd" clip-rule="evenodd" d="M13.1107 10.8344C12.3699 11.383 11.1664 12 9.5 12C8.55784 12 7.76363 11.8028 7.11736 11.5322C6.42175 12.3244 6 13.3629 6 14.5C6 16.9853 8.01472 19 10.5 19C12.9853 19 15 16.9853 15 14.5C15 12.9881 14.2543 11.6503 13.1107 10.8344ZM24.8826 11.5322C24.2364 11.8028 23.4422 12 22.5 12C20.8336 12 19.6301 11.383 18.8893 10.8344C17.7457 11.6503 17 12.9881 17 14.5C17 16.9853 19.0147 19 21.5 19C23.9853 19 26 16.9853 26 14.5C26 13.3629 25.5782 12.3244 24.8826 11.5322Z" fill="white"/>
<path d="M12 17C13.1046 17 14 16.1046 14 15C14 13.8954 13.1046 13 12 13C10.8954 13 10 13.8954 10 15C10 16.1046 10.8954 17 12 17Z" fill="url(#paint5_linear_31_1636)"/>
<path d="M20 17C21.1046 17 22 16.1046 22 15C22 13.8954 21.1046 13 20 13C18.8954 13 18 13.8954 18 15C18 16.1046 18.8954 17 20 17Z" fill="url(#paint6_linear_31_1636)"/>
<g filter="url(#filter0_f_31_1636)">
<path d="M10.25 6C10.25 6 9.75 9 6.25 9" stroke="#4475BF" stroke-width="1.25" stroke-linecap="round" stroke-linejoin="round"/>
</g>
<g filter="url(#filter1_f_31_1636)">
<path d="M21 5.75C21 5.75 21.5 8.75 25 8.75" stroke="#166CDE" stroke-width="1.25" stroke-linecap="round" stroke-linejoin="round"/>
</g>
<path d="M10.5 5.5C10.5 5.5 10 8.5 6.5 8.5" stroke="url(#paint7_linear_31_1636)" stroke-width="1.25" stroke-linecap="round" stroke-linejoin="round"/>
<path d="M10.5 5.5C10.5 5.5 10 8.5 6.5 8.5" stroke="url(#paint8_radial_31_1636)" stroke-width="1.25" stroke-linecap="round" stroke-linejoin="round"/>
<path d="M21.5 5.5C21.5 5.5 22 8.5 25.5 8.5" stroke="url(#paint9_radial_31_1636)" stroke-width="1.25" stroke-linecap="round" stroke-linejoin="round"/>
<path d="M20.9013 25.0064C21.0104 25.5478 20.5516 26 19.9993 26C16.9301 26 14.7168 26 12.0002 26C11.448 26 10.9896 25.5478 11.0987 25.0064C11.5595 22.721 13.5788 21 16 21C18.4212 21 20.4405 22.721 20.9013 25.0064Z" fill="url(#paint10_radial_31_1636)"/>
<rect x="1" y="16" width="5" height="9" rx="2.5" fill="url(#paint11_radial_31_1636)"/>
<defs>
<filter id="filter0_f_31_1636" x="4.625" y="4.37488" width="7.25012" height="6.25012" filterUnits="userSpaceOnUse" color-interpolation-filters="sRGB">
<feFlood flood-opacity="0" result="BackgroundImageFix"/>
<feBlend mode="normal" in="SourceGraphic" in2="BackgroundImageFix" result="shape"/>
<feGaussianBlur stdDeviation="0.5" result="effect1_foregroundBlur_31_1636"/>
</filter>
<filter id="filter1_f_31_1636" x="19.3749" y="4.12488" width="7.25012" height="6.25012" filterUnits="userSpaceOnUse" color-interpolation-filters="sRGB">
<feFlood flood-opacity="0" result="BackgroundImageFix"/>
<feBlend mode="normal" in="SourceGraphic" in2="BackgroundImageFix" result="shape"/>
<feGaussianBlur stdDeviation="0.5" result="effect1_foregroundBlur_31_1636"/>
</filter>
<radialGradient id="paint0_radial_31_1636" cx="0" cy="0" r="1" gradientUnits="userSpaceOnUse" gradientTransform="translate(25.5 9) rotate(132.839) scale(37.5033)">
<stop stop-color="#FFF478"/>
<stop offset="0.474827" stop-color="#FFB02E"/>
<stop offset="1" stop-color="#F70A8D"/>
</radialGradient>
<radialGradient id="paint1_radial_31_1636" cx="0" cy="0" r="1" gradientUnits="userSpaceOnUse" gradientTransform="translate(16 49) rotate(-90) scale(51 64.9968)">
<stop offset="0.670495" stop-color="#BFB2DD" stop-opacity="0"/>
<stop offset="0.747649" stop-color="#A4AEEB"/>
<stop offset="0.811631" stop-color="#379EFF"/>
<stop offset="0.964059" stop-color="#1345B7"/>
</radialGradient>
<radialGradient id="paint2_radial_31_1636" cx="0" cy="0" r="1" gradientUnits="userSpaceOnUse" gradientTransform="translate(18 14) rotate(135) scale(41.0122)">
<stop offset="0.314853" stop-opacity="0"/>
<stop offset="1"/>
</radialGradient>
<radialGradient id="paint3_radial_31_1636" cx="0" cy="0" r="1" gradientUnits="userSpaceOnUse" gradientTransform="translate(12.8889 12.1111) rotate(135) scale(9.74236 5.04232)">
<stop offset="0.330628" stop-color="#392108"/>
<stop offset="1" stop-color="#C87928" stop-opacity="0"/>
</radialGradient>
<radialGradient id="paint4_radial_31_1636" cx="0" cy="0" r="1" gradientUnits="userSpaceOnUse" gradientTransform="translate(23 13) rotate(135) scale(8.13173 4.59049)">
<stop offset="0.402076" stop-color="#392108"/>
<stop offset="1" stop-color="#C87928" stop-opacity="0"/>
</radialGradient>
<linearGradient id="paint5_linear_31_1636" x1="20.7692" y1="13" x2="20" y2="17" gradientUnits="userSpaceOnUse">
<stop stop-color="#553B3E"/>
<stop offset="1" stop-color="#3D2432"/>
</linearGradient>
<linearGradient id="paint6_linear_31_1636" x1="20.7692" y1="13" x2="20" y2="17" gradientUnits="userSpaceOnUse">
<stop stop-color="#553B3E"/>
<stop offset="1" stop-color="#3D2432"/>
</linearGradient>
<linearGradient id="paint7_linear_31_1636" x1="9.5" y1="5" x2="9.5" y2="6.5" gradientUnits="userSpaceOnUse">
<stop offset="0.0299084" stop-color="#524049"/>
<stop offset="1" stop-color="#4A2C42"/>
</linearGradient>
<radialGradient id="paint8_radial_31_1636" cx="0" cy="0" r="1" gradientUnits="userSpaceOnUse" gradientTransform="translate(7 5) rotate(54.4623) scale(4.30116)">
<stop offset="0.541667" stop-color="#493032"/>
<stop offset="0.806723" stop-color="#5E445A"/>
<stop offset="0.955326" stop-color="#4A2C42"/>
</radialGradient>
<radialGradient id="paint9_radial_31_1636" cx="0" cy="0" r="1" gradientUnits="userSpaceOnUse" gradientTransform="translate(25 5) rotate(125.538) scale(4.30116)">
<stop stop-color="#C2B4B5"/>
<stop offset="0.887405" stop-color="#462B45"/>
<stop offset="1" stop-color="#4A2C42"/>
</radialGradient>
<radialGradient id="paint10_radial_31_1636" cx="0" cy="0" r="1" gradientUnits="userSpaceOnUse" gradientTransform="translate(16 27.1111) rotate(-90) scale(7.61111 15.2222)">
<stop stop-color="#F70A8D"/>
<stop offset="1" stop-color="#89029C"/>
</radialGradient>
<radialGradient id="paint11_radial_31_1636" cx="0" cy="0" r="1" gradientUnits="userSpaceOnUse" gradientTransform="translate(5.16667 16.4091) rotate(104.88) scale(9.73555 3.6969)">
<stop stop-color="#5C98FF"/>
<stop offset="0.805982" stop-color="#3D5BF1"/>
<stop offset="0.962238" stop-color="#6065CA"/>
</radialGradient>
</defs>
</svg>

<svg width="32" height="32" fill="none" xmlns="http://www.w3.org/2000/svg"><path d="M15.999 29.998c9.334 0 13.999-6.268 13.999-14 0-7.73-4.665-13.998-14-13.998C6.665 2 2 8.268 2 15.999c0 7.731 4.664 13.999 13.999 13.999Z" fill="url(#a)"/><path d="M15.999 29.998c9.334 0 13.999-6.268 13.999-14 0-7.73-4.665-13.998-14-13.998C6.665 2 2 8.268 2 15.999c0 7.731 4.664 13.999 13.999 13.999Z" fill="url(#b)"/><path d="M15.999 29.998c9.334 0 13.999-6.268 13.999-14 0-7.73-4.665-13.998-14-13.998C6.665 2 2 8.268 2 15.999c0 7.731 4.664 13.999 13.999 13.999Z" fill="url(#c)" fill-opacity=".6"/><path fill-rule="evenodd" clip-rule="evenodd" d="M6.927 11.448a5 5 0 1 0 4.582.226A6.184 6.184 0 0 1 9.5 12a6.094 6.094 0 0 1-2.573-.552Z" fill="url(#d)"/><circle cx="19.5" cy="16.5" r="4.5" fill="url(#e)"/><path fill-rule="evenodd" clip-rule="evenodd" d="M13.11 10.834C12.37 11.383 11.167 12 9.5 12a6.121 6.121 0 0 1-2.383-.468 4.5 4.5 0 1 0 5.993-.698Zm11.773.698A6.12 6.12 0 0 1 22.5 12c-1.666 0-2.87-.617-3.61-1.166a4.5 4.5 0 1 0 5.993.698Z" fill="#fff"/><path d="M12 17a2 2 0 1 0 0-4 2 2 0 0 0 0 4Z" fill="url(#f)"/><path d="M20 17a2 2 0 1 0 0-4 2 2 0 0 0 0 4Z" fill="url(#g)"/><g filter="url(#h)"><path d="M10.25 6s-.5 3-4 3" stroke="#4475BF" stroke-width="1.25" stroke-linecap="round" stroke-linejoin="round"/></g><g filter="url(#i)"><path d="M21 5.75s.5 3 4 3" stroke="#166CDE" stroke-width="1.25" stroke-linecap="round" stroke-linejoin="round"/></g><path d="M10.5 5.5s-.5 3-4 3" stroke="url(#j)" stroke-width="1.25" stroke-linecap="round" stroke-linejoin="round"/><path d="M10.5 5.5s-.5 3-4 3" stroke="url(#k)" stroke-width="1.25" stroke-linecap="round" stroke-linejoin="round"/><path d="M21.5 5.5s.5 3 4 3" stroke="url(#l)" stroke-width="1.25" stroke-linecap="round" stroke-linejoin="round"/><path d="M20.901 25.006c.11.542-.35.994-.902.994H12c-.552 0-1.01-.452-.901-.994a5.002 5.002 0 0 1 9.802 0Z" fill="url(#m)"/><rect x="1" y="16" width="5" height="9" rx="2.5" fill="url(#n)"/><defs><radialGradient id="a" cx="0" cy="0" r="1" gradientUnits="userSpaceOnUse" gradientTransform="rotate(132.839 10.786 10.065) scale(37.5033)"><stop stop-color="#FFF478"/><stop offset=".475" stop-color="#FFB02E"/><stop offset="1" stop-color="#F70A8D"/></radialGradient><radialGradient id="b" cx="0" cy="0" r="1" gradientUnits="userSpaceOnUse" gradientTransform="matrix(0 -51 64.9968 0 16 49)"><stop offset=".67" stop-color="#BFB2DD" stop-opacity="0"/><stop offset=".748" stop-color="#A4AEEB"/><stop offset=".812" stop-color="#379EFF"/><stop offset=".964" stop-color="#1345B7"/></radialGradient><radialGradient id="c" cx="0" cy="0" r="1" gradientUnits="userSpaceOnUse" gradientTransform="matrix(-29 29 -29 -29 18 14)"><stop offset=".315" stop-opacity="0"/><stop offset="1"/></radialGradient><radialGradient id="d" cx="0" cy="0" r="1" gradientUnits="userSpaceOnUse" gradientTransform="rotate(135 3.936 8.725) scale(9.74236 5.04232)"><stop offset=".331" stop-color="#392108"/><stop offset="1" stop-color="#C87928" stop-opacity="0"/></radialGradient><radialGradient id="e" cx="0" cy="0" r="1" gradientUnits="userSpaceOnUse" gradientTransform="matrix(-5.75 5.75 -3.24597 -3.24597 23 13)"><stop offset=".402" stop-color="#392108"/><stop offset="1" stop-color="#C87928" stop-opacity="0"/></radialGradient><radialGradient id="k" cx="0" cy="0" r="1" gradientUnits="userSpaceOnUse" gradientTransform="matrix(2.5 3.5 -3.5 2.5 7 5)"><stop offset=".542" stop-color="#493032"/><stop offset=".807" stop-color="#5E445A"/><stop offset=".955" stop-color="#4A2C42"/></radialGradient><radialGradient id="l" cx="0" cy="0" r="1" gradientUnits="userSpaceOnUse" gradientTransform="rotate(125.538 11.213 8.933) scale(4.30116)"><stop stop-color="#C2B4B5"/><stop offset=".887" stop-color="#462B45"/><stop offset="1" stop-color="#4A2C42"/></radialGradient><radialGradient id="m" cx="0" cy="0" r="1" gradientUnits="userSpaceOnUse" gradientTransform="matrix(0 -7.61111 15.2222 0 16 27.111)"><stop stop-color="#F70A8D"/><stop offset="1" stop-color="#89029C"/></radialGradient><radialGradient id="n" cx="0" cy="0" r="1" gradientUnits="userSpaceOnUse" gradientTransform="rotate(104.88 -3.726 10.191) scale(9.73555 3.6969)"><stop stop-color="#5C98FF"/><stop offset=".806" stop-color="#3D5BF1"/><stop offset=".962" stop-color="#6065CA"/></radialGradient><linearGradient id="f" x1="20.769" y1="13" x2="20" y2="17" gradientUnits="userSpaceOnUse"><stop stop-color="#553B3E"/><stop offset="1" stop-color="#3D2432"/></linearGradient><linearGradient id="g" x1="20.769" y1="13" x2="20" y2="17" gradientUnits="userSpaceOnUse"><stop stop-color="#553B3E"/><stop offset="1" stop-color="#3D2432"/></linearGradient><linearGradient id="j" x1="9.5" y1="5" x2="9.5" y2="6.5" gradientUnits="userSpaceOnUse"><stop offset=".03" stop-color="#524049"/><stop offset="1" stop-color="#4A2C42"/></linearGradient><filter id="h" x="4.625" y="4.375" width="7.25" height="6.25" filterUnits="userSpaceOnUse" color-interpolation-filters="sRGB"><feFlood flood-opacity="0" result="BackgroundImageFix"/><feBlend in="SourceGraphic" in2="BackgroundImageFix" result="shape"/><feGaussianBlur stdDeviation=".5" result="effect1_foregroundBlur_31_1636"/></filter><filter id="i" x="19.375" y="4.125" width="7.25" height="6.25" filterUnits="userSpaceOnUse" color-interpolation-filters="sRGB"><feFlood flood-opacity="0" result="BackgroundImageFix"/><feBlend in="SourceGraphic" in2="BackgroundImageFix" result="shape"/><feGaussianBlur stdDeviation=".5" result="effect1_foregroundBlur_31_1636"/></filter></defs></svg>
